X:1
T:Suite no. 1 for cello, Prelude
C:J.S. Bach
L:1/16
M:4/4
K:Gmaj
Q:1/4=72
V:1 treble nm="Violoncello" snm="Vlc."
 G,DBA BDBD G,DBA BDBD | G,EcB cEcE G,EcB cEcE | G,FcB cFcF G,FcB cFcF | G,GBA BGBG G,GBA BGBF |  G,EBA BGFG EGFG B,D^CB, | _DGAG AGAG DGAG AGAG | FAdc dAGA FAGA DFED |  E,B,GF GB,GB, E,B,GF GB,GB, | E,_D=DE D_DB,A, GFEd _dBAG | FEDd AdFA DEFA GFED |  _AD=FE FDAD BDFE FDAD | CEAB cAED CEAB cAFE | _EFEF AFAF EFEF AFAF | GFEG FGAF GFED CB,A,G, |  F,CDC DCDC F,CDC DCDC | G,B,FE FB,FB, G,B,FE FG,FG, | G,CED ECEC G,CED ECEC |  G,FcB cFcF G,FcB cFcF | G,DBA BGFE DCB,A, G,F,E,D, | _D,A,EF GEFG D,A,EF GEFG |  C,A,DE FDEF C,A,DE FDEF | C,A,DF A_d=d2- dA,B,C DEFG | AFDE FGAB cAFG ABcd |  _ed_d=d dcBc cAFE DA,B,C | D,A,DF ABcA BGDC B,G,A,B, | D,G,B,D GABG _dBA_B BA_A=A |  AGFG GE_DB, A,DEG Acdc | dAFE FADF A,DCB, A,G,F,E, | D,2cB AGFE DcBA GFED |  CBAG FEDC B,AGF EDCB, | A,GFE FADA EAFA GAEA | FADA GAEA FADA GAEA | FADA EAFA GAAA BADA |  AABA cADA BAcA dABA | cABA cAAA BAAA BAGA | AAGA AAFA GAFA GAEA |  FADE =FD^FD GD_AD =AD_BD | BDcD _dD=dD _eD=eD =fD^fD | gBDB gBgB gBDB gBgB |  gADA gAgA gADA gAgA | fcDc fcfc fcDc fcfc | G,8  B,8 | 
